data/cards/self-care/hair-cut.svg

<svg width="512" height="512" viewBox="0 0 512 512" fill="none" xmlns="http://www.w3.org/2000/svg">
<path d="M427.042 165.407C473.963 165.407 512 127.37 512 80.4491V36.8041C512 20.8011 499.027 7.82715 483.023 7.82715C467.02 7.82715 454.046 20.8001 454.046 36.8041V68.0291C454.046 75.2161 448.219 81.0431 441.032 81.0431H421.924C414.737 81.0431 408.91 75.2161 408.91 68.0291V36.8041C408.91 20.8011 395.937 7.82715 379.933 7.82715C363.93 7.82715 350.956 20.8001 350.956 36.8041V68.0291C350.956 75.2161 345.129 81.0431 337.942 81.0431H318.834C311.647 81.0431 305.82 75.2161 305.82 68.0291V36.8041C305.82 20.8011 292.847 7.82715 276.843 7.82715C260.84 7.82715 247.866 20.8001 247.866 36.8041V68.0291C247.866 75.2161 242.039 81.0431 234.852 81.0431H215.744C208.557 81.0431 202.73 75.2161 202.73 68.0291V36.8041C202.73 20.8011 189.757 7.82715 173.753 7.82715C157.749 7.82715 144.776 20.8001 144.776 36.8041V80.4491C144.776 127.37 182.813 165.407 229.734 165.407H427.042Z" fill="#E8899E"/>
<path d="M323.232 165.407C292.71 148.624 287.268 98.9321 286.864 9.60815C283.741 8.45715 280.366 7.82715 276.844 7.82715C260.841 7.82715 247.867 20.8001 247.867 36.8041V68.0291C247.867 75.2161 242.04 81.0431 234.853 81.0431H215.745C208.558 81.0431 202.731 75.2171 202.731 68.0291V36.8041C202.731 20.8011 189.758 7.82715 173.754 7.82715C157.75 7.82715 144.777 20.8001 144.777 36.8041V80.4491C144.777 127.37 182.814 165.407 229.735 165.407H323.232Z" fill="#E26E7E"/>
<path d="M361.356 130.725H302.734C298.591 130.725 295.234 127.367 295.234 123.225C295.234 119.083 298.591 115.725 302.734 115.725H361.356C365.499 115.725 368.856 119.083 368.856 123.225C368.856 127.367 365.499 130.725 361.356 130.725Z" fill="white"/>
<path d="M243.195 79.832C203.326 79.832 171.006 112.152 171.006 152.021V418.67C171.006 465.892 209.287 504.173 256.509 504.173C303.731 504.173 342.012 465.892 342.012 418.67C342.012 371.448 303.731 333.167 256.509 333.167V93.146C256.509 85.793 250.548 79.832 243.195 79.832ZM256.509 389.489C272.625 389.489 285.69 402.554 285.69 418.67C285.69 434.786 272.625 447.851 256.509 447.851C240.393 447.851 227.328 434.786 227.328 418.67C227.328 402.554 240.393 389.489 256.509 389.489Z" fill="#6A96D7"/>
<path d="M256.509 93.146V248.173H171.006V152.021C171.006 112.152 203.326 79.832 243.195 79.832C250.548 79.832 256.509 85.793 256.509 93.146Z" fill="#A3DEFE"/>
<path d="M171.006 220.188H256.509V247.664H171.006V220.188Z" fill="#7ACEFA"/>
<path d="M411.027 247.664H171.006C171.006 200.442 132.725 162.161 85.503 162.161C38.281 162.161 0 200.442 0 247.664C0 294.886 38.281 333.167 85.503 333.167H352.152C392.021 333.167 424.341 300.847 424.341 260.978C424.341 253.624 418.38 247.664 411.027 247.664ZM85.503 276.844C69.387 276.844 56.322 263.779 56.322 247.663C56.322 231.547 69.387 218.482 85.503 218.482C101.619 218.482 114.684 231.547 114.684 247.663C114.684 263.78 101.619 276.844 85.503 276.844Z" fill="#8EAFE2"/>
<path d="M411.027 247.664H256V333.167H352.152C392.021 333.167 424.341 300.847 424.341 260.978C424.341 253.624 418.38 247.664 411.027 247.664Z" fill="#A3DEFE"/>
<path d="M143.941 185.276C128.652 170.949 108.109 162.16 85.503 162.16C38.281 162.161 0 200.442 0 247.664C0 294.886 38.281 333.167 85.503 333.167H159.134C138.801 311.682 117.248 266.276 143.941 185.276ZM85.503 276.844C69.387 276.844 56.322 263.779 56.322 247.663C56.322 231.547 69.387 218.482 85.503 218.482C101.619 218.482 114.684 231.547 114.684 247.663C114.684 263.78 101.619 276.844 85.503 276.844Z" fill="#6A96D7"/>
<path d="M213.758 300.164C219.142 300.164 223.507 295.799 223.507 290.415C223.507 285.031 219.142 280.666 213.758 280.666C208.374 280.666 204.009 285.031 204.009 290.415C204.009 295.799 208.374 300.164 213.758 300.164Z" fill="#4E5660"/>
</svg>

<svg xmlns="http://www.w3.org/2000/svg" width="512" height="512" fill="none"><path fill="#E8899E" d="M427.042 165.407c46.921 0 84.958-38.037 84.958-84.958V36.804c0-16.003-12.973-28.977-28.977-28.977-16.003 0-28.977 12.973-28.977 28.977V68.03c0 7.187-5.827 13.014-13.014 13.014h-19.108c-7.187 0-13.014-5.827-13.014-13.014V36.804c0-16.003-12.973-28.977-28.977-28.977-16.003 0-28.977 12.973-28.977 28.977V68.03c0 7.187-5.827 13.014-13.014 13.014h-19.108c-7.187 0-13.014-5.827-13.014-13.014V36.804c0-16.003-12.973-28.977-28.977-28.977-16.003 0-28.977 12.973-28.977 28.977V68.03c0 7.187-5.827 13.014-13.014 13.014h-19.108c-7.187 0-13.014-5.827-13.014-13.014V36.804c0-16.003-12.973-28.977-28.977-28.977-16.004 0-28.977 12.973-28.977 28.977V80.45c0 46.921 38.037 84.958 84.958 84.958h197.308Z"/><path fill="#E26E7E" d="M323.232 165.407c-30.522-16.783-35.964-66.475-36.368-155.799a28.917 28.917 0 0 0-10.02-1.78c-16.003 0-28.977 12.972-28.977 28.976V68.03c0 7.187-5.827 13.014-13.014 13.014h-19.108c-7.187 0-13.014-5.826-13.014-13.014V36.804c0-16.003-12.973-28.977-28.977-28.977-16.004 0-28.977 12.973-28.977 28.977V80.45c0 46.921 38.037 84.958 84.958 84.958h93.497Z"/><path fill="#fff" d="M361.356 130.725h-58.622a7.5 7.5 0 0 1-7.5-7.5 7.5 7.5 0 0 1 7.5-7.5h58.622a7.5 7.5 0 0 1 7.5 7.5 7.5 7.5 0 0 1-7.5 7.5Z"/><path fill="#6A96D7" d="M243.195 79.832c-39.869 0-72.189 32.32-72.189 72.189V418.67c0 47.222 38.281 85.503 85.503 85.503s85.503-38.281 85.503-85.503-38.281-85.503-85.503-85.503V93.146c0-7.353-5.961-13.314-13.314-13.314Zm13.314 309.657c16.116 0 29.181 13.065 29.181 29.181s-13.065 29.181-29.181 29.181-29.181-13.065-29.181-29.181 13.065-29.181 29.181-29.181Z"/><path fill="#A3DEFE" d="M256.509 93.146v155.027h-85.503v-96.152c0-39.869 32.32-72.189 72.189-72.189 7.353 0 13.314 5.961 13.314 13.314Z"/><path fill="#7ACEFA" d="M171.006 220.188h85.503v27.476h-85.503v-27.476Z"/><path fill="#8EAFE2" d="M411.027 247.664H171.006c0-47.222-38.281-85.503-85.503-85.503S0 200.442 0 247.664s38.281 85.503 85.503 85.503h266.649c39.869 0 72.189-32.32 72.189-72.189 0-7.354-5.961-13.314-13.314-13.314Zm-325.524 29.18c-16.116 0-29.181-13.065-29.181-29.181s13.065-29.181 29.181-29.181 29.181 13.065 29.181 29.181c0 16.117-13.065 29.181-29.181 29.181Z"/><path fill="#A3DEFE" d="M411.027 247.664H256v85.503h96.152c39.869 0 72.189-32.32 72.189-72.189 0-7.354-5.961-13.314-13.314-13.314Z"/><path fill="#6A96D7" d="M143.941 185.276c-15.289-14.327-35.832-23.116-58.438-23.116C38.281 162.161 0 200.442 0 247.664c0 47.222 38.281 85.503 85.503 85.503h73.631c-20.333-21.485-41.886-66.891-15.193-147.891Zm-58.438 91.568c-16.116 0-29.181-13.065-29.181-29.181s13.065-29.181 29.181-29.181 29.181 13.065 29.181 29.181c0 16.117-13.065 29.181-29.181 29.181Z"/><path fill="#4E5660" d="M213.758 300.164c5.384 0 9.749-4.365 9.749-9.749s-4.365-9.749-9.749-9.749-9.749 4.365-9.749 9.749 4.365 9.749 9.749 9.749Z"/></svg>
